public/logos/18_eu/11.svg

<svg xmlns="http://www.w3.org/2000/svg" viewBox="0 0 38 38"  fill-rule="nonzero" stroke-linejoin="round" stroke-miterlimit="2" xmlns:v="https://vecta.io/nano"><path d="M36.72 18.72c0-9.875-8.125-18-18-18s-18 8.125-18 18 8.125 18 18 18 18-8.125 18-18" fill="#202020"/><path d="M20.79 28.47l-.14-.17v-.83l.14-.17a20.17 20.17 0 0 0 3-.37.66.66 0 0 0 .37-.34c.202-.899.286-1.82.25-2.74l.12-7.12-.09-4.54c-.09-.29-.11-.25-.25-.25-.14.008-.276.046-.4.11L20 13.79l-.2-.12c-.062-.564-.169-1.123-.32-1.67l.12-.23c2.947-.808 5.848-1.777 8.69-2.9l.37.23c-.14 1.28-.23 3.05-.29 5.27l-.08 8.07c-.039 1.336.018 2.672.17 4a.81.81 0 0 0 .31.49 11.22 11.22 0 0 0 2.85.34l.15.17v.83l-.15.17h-1.73c-1.74 0-2.94-.06-3.54-.06l-5.56.09zm-14.25 0l-.14-.17v-.83l.14-.17a20.17 20.17 0 0 0 3-.37.66.66 0 0 0 .37-.34c.202-.899.286-1.82.25-2.74l.12-7.12-.09-4.54c-.09-.29-.11-.25-.25-.25-.14.008-.276.046-.4.11l-3.82 1.74-.2-.12A10.61 10.61 0 0 0 5.23 12l.12-.23A84.16 84.16 0 0 0 14 8.86l.37.23c-.14 1.28-.23 3.05-.28 5.27L14 22.43c-.039 1.336.018 2.672.17 4a.81.81 0 0 0 .31.49 11.22 11.22 0 0 0 2.85.34l.15.17v.83l-.15.17H15.6c-1.74 0-2.94-.06-3.54-.06l-5.52.1z" fill="#fff"/></svg>

<?xml version="1.0" encoding="UTF-8" standalone="no"?>
<!DOCTYPE svg PUBLIC "-//W3C//DTD SVG 1.1//EN" "http://www.w3.org/Graphics/SVG/1.1/DTD/svg11.dtd">
<svg width="100%" height="100%" viewBox="0 0 38 38" version="1.1" xmlns="http://www.w3.org/2000/svg" xmlns:xlink="http://www.w3.org/1999/xlink" xml:space="preserve" xmlns:serif="http://www.serif.com/" style="fill-rule:evenodd;clip-rule:evenodd;stroke-linejoin:round;stroke-miterlimit:2;">
    <path d="M36.72,18.72C36.72,8.845 28.595,0.72 18.72,0.72C8.845,0.72 0.72,8.845 0.72,18.72C0.72,28.595 8.845,36.72 18.72,36.72C28.595,36.72 36.72,28.595 36.72,18.72" style="fill:rgb(32,32,32);fill-rule:nonzero;"/>
    <path d="M20.79,28.47L20.65,28.3L20.65,27.47L20.79,27.3C21.798,27.252 22.801,27.128 23.79,26.93C23.953,26.87 24.086,26.748 24.16,26.59C24.362,25.691 24.446,24.77 24.41,23.85C24.5,21.17 24.53,18.78 24.53,16.73C24.53,13.99 24.53,12.48 24.44,12.19C24.35,11.9 24.33,11.94 24.19,11.94C24.05,11.948 23.914,11.986 23.79,12.05L20,13.79L19.8,13.67C19.738,13.106 19.631,12.547 19.48,12L19.6,11.77C22.547,10.962 25.448,9.993 28.29,8.87L28.66,9.1C28.52,10.38 28.43,12.15 28.37,14.37C28.31,16.59 28.29,19.27 28.29,22.44C28.251,23.776 28.308,25.112 28.46,26.44C28.499,26.636 28.61,26.811 28.77,26.93C29.702,27.165 30.659,27.279 31.62,27.27L31.77,27.44L31.77,28.27L31.62,28.44L29.89,28.44C28.15,28.44 26.95,28.38 26.35,28.38C24.64,28.38 22.79,28.41 20.79,28.47ZM6.54,28.47L6.4,28.3L6.4,27.47L6.54,27.3C7.548,27.252 8.551,27.128 9.54,26.93C9.703,26.87 9.836,26.748 9.91,26.59C10.112,25.691 10.196,24.77 10.16,23.85C10.25,21.17 10.28,18.78 10.28,16.73C10.28,13.99 10.28,12.48 10.19,12.19C10.1,11.9 10.08,11.94 9.94,11.94C9.8,11.948 9.664,11.986 9.54,12.05L5.72,13.79L5.52,13.67C5.468,13.106 5.371,12.548 5.23,12L5.35,11.77C8.284,10.957 11.171,9.986 14,8.86L14.37,9.09C14.23,10.37 14.14,12.14 14.09,14.36C14.04,16.58 14,19.26 14,22.43C13.961,23.766 14.018,25.102 14.17,26.43C14.209,26.626 14.32,26.801 14.48,26.92C15.412,27.155 16.369,27.269 17.33,27.26L17.48,27.43L17.48,28.26L17.33,28.43L15.6,28.43C13.86,28.43 12.66,28.37 12.06,28.37C10.39,28.38 8.54,28.41 6.54,28.47Z" style="fill:white;fill-rule:nonzero;"/>
</svg>
